src/_icons/eu-ecb.svg

---
version: "0.0.4"
---
<svg>
  <path d="M27 2.875l-1.552 1.25l.575 1.875l-1.494 -1l-1.552 1l.575 -1.875l-1.552 -1.25h1.954l.575 -1.875l.574 1.875h1.897zm0 41l-1.552 1.25l.575 1.875l-1.494 -1.063l-1.552 1.063l.575 -1.875l-1.552 -1.25h1.954l.575 -1.875l.574 1.875h1.897zm10 -37.887l-1.626 1.205l.602 1.807l-1.386 -1.205l-1.626 1.205l.602 -1.807l-1.566 -1.205h1.807l.783 -1.988l.603 1.988h1.807zm7 6.864l-1.512 1.296l.582 1.852l-1.57 -1.235l-1.57 1.235l.582 -1.852l-1.512 -1.296h1.919l.581 -1.852l.581 1.852h1.919zm3 11.023l-1.552 1.25l.632 1.875l-1.551 -1.25l-1.552 1.25l.575 -1.875l-1.552 -1.25h1.954l.576 -1.875l.574 1.875h1.896zm-3 10.113l-1.512 1.024l.582 1.988l-1.57 -1.205l-1.57 1.205l.582 -1.988l-1.512 -1.024h1.919l.581 -1.988l.581 1.988h1.919zm-7 6.887l-1.626 1.25l.602 1.875l-1.386 -1.25l-1.626 1.25l.602 -1.875l-1.566 -1.25h1.807l.783 -1.875l.603 1.875h1.807zm-21 0l-1.552 1.25l.575 1.875l-1.552 -1.25l-1.494 1.25l.575 -1.875l-1.552 -1.25h1.897l.573 -1.875l.575 1.875h1.955zm9.016 -30.875c3.845 0 7.46 1.537 9.984 4.155l-.975 2.447c-2.123 -2.447 -5.336 -4.155 -9.009 -4.155c-5.336 0 -9.754 3.415 -11.303 8.195h18.59l-.975 2.277h-18.189v2.276h17.041l-.975 2.277h-15.721c1.549 4.723 5.91 8.195 11.303 8.195c3.615 0 6.885 -1.708 9.008 -4.155v3.244c-2.467 2.106 -5.565 3.244 -9.008 3.244c-6.484 0 -12.05 -4.553 -13.77 -10.472h-4.017l.975 -2.276h2.697v-2.276h-3.615l1.148 -2.504h3.04c1.551 -6.09 7.059 -10.472 13.772 -10.472zm-18.426 22l.603 1.988h1.807l-1.386 1.024l.603 1.988l-1.627 -1.205l-1.566 1.205l.602 -1.988l-1.626 -1.024h1.988l.602 -1.988zm-3.209 -10l.595 1.875h2.024l-1.607 1.25l.595 1.875l-1.607 -1.25l-1.548 1.25l.596 -1.875l-1.429 -1.25h1.786l.594 -1.875zm3.21 -11l.602 1.852h1.807l-1.386 1.296l.603 1.852l-1.627 -1.235l-1.566 1.235l.602 -1.852l-1.626 -1.296h1.988l.602 -1.852zm9.409 -5.012l-1.552 1.205l.575 1.807l-1.552 -1.205l-1.494 1.205l.575 -1.807l-1.552 -1.205h1.897l.573 -1.988l.575 1.988h1.955z" />
</svg>

<svg>
  <path d="m27 2.875-1.552 1.25L26.023 6l-1.494-1-1.552 1 .575-1.875L22 2.875h1.954L24.529 1l.574 1.875H27Zm0 41-1.552 1.25.575 1.875-1.494-1.063L22.977 47l.575-1.875L22 43.875h1.954L24.529 42l.574 1.875H27ZM37 5.988l-1.626 1.205L35.976 9 34.59 7.795 32.964 9l.602-1.807L32 5.988h1.807L34.59 4l.603 1.988H37Zm7 6.864-1.512 1.296L43.07 16l-1.57-1.235L39.93 16l.582-1.852L39 12.852h1.919L41.5 11l.581 1.852H44Zm3 11.023-1.552 1.25L46.08 27l-1.551-1.25L42.977 27l.575-1.875L42 23.875h1.954L44.53 22l.574 1.875H47Zm-3 10.113-1.512 1.024L43.07 37l-1.57-1.205L39.93 37l.582-1.988L39 33.988h1.919L41.5 32l.581 1.988H44Zm-7 6.887-1.626 1.25.602 1.875-1.386-1.25L32.964 44l.602-1.875L32 40.875h1.807L34.59 39l.603 1.875H37Zm-21 0-1.552 1.25.575 1.875-1.552-1.25L11.977 44l.575-1.875L11 40.875h1.897L13.47 39l.575 1.875H16ZM25.016 10c3.845 0 7.46 1.537 9.984 4.155l-.975 2.447c-2.123-2.447-5.336-4.155-9.009-4.155-5.336 0-9.754 3.415-11.303 8.195h18.59l-.975 2.277H13.139v2.276H30.18l-.975 2.277H13.484c1.549 4.723 5.91 8.195 11.303 8.195 3.615 0 6.885-1.708 9.008-4.155v3.244C31.328 36.862 28.23 38 24.787 38c-6.484 0-12.05-4.553-13.77-10.472H7l.975-2.276h2.697v-2.276H7.057l1.148-2.504h3.04C12.796 14.382 18.304 10 25.017 10ZM6.59 32l.603 1.988H9l-1.386 1.024L8.217 37 6.59 35.795 5.024 37l.602-1.988L4 33.988h1.988L6.59 32ZM3.381 22l.595 1.875H6l-1.607 1.25L4.988 27l-1.607-1.25L1.833 27l.596-1.875L1 23.875h1.786L3.38 22Zm3.21-11 .602 1.852H9l-1.386 1.296L8.217 16 6.59 14.765 5.024 16l.602-1.852L4 12.852h1.988L6.59 11ZM16 5.988l-1.552 1.205L15.023 9l-1.552-1.205L11.977 9l.575-1.807L11 5.988h1.897L13.47 4l.575 1.988H16Z"/>
</svg>
